storage/app/icons/phosphoricons/duotone/file-html-duotone.svg

<svg xmlns="http://www.w3.org/2000/svg" fill="currentColor" viewBox="0 0 256 256"><path d="M208 88h-56V32Z" opacity=".2"/><path d="M216 120V88a8 8 0 0 0-2.34-5.66l-56-56A8 8 0 0 0 152 24H56a16 16 0 0 0-16 16v80a8 8 0 0 0 16 0V40h88v48a8 8 0 0 0 8 8h48v24a8 8 0 0 0 16 0m-56-68.69L188.69 80H160ZM68 160v48a8 8 0 0 1-16 0v-16H32v16a8 8 0 0 1-16 0v-48a8 8 0 0 1 16 0v16h20v-16a8 8 0 0 1 16 0m56 0a8 8 0 0 1-8 8h-8v40a8 8 0 0 1-16 0v-40h-8a8 8 0 0 1 0-16h32a8 8 0 0 1 8 8m72 0v48a8 8 0 0 1-16 0v-24l-9.6 12.8a8 8 0 0 1-12.8 0L148 184v24a8 8 0 0 1-16 0v-48a8 8 0 0 1 14.4-4.8l17.6 23.47 17.6-23.47A8 8 0 0 1 196 160m56 48a8 8 0 0 1-8 8h-28a8 8 0 0 1-8-8v-48a8 8 0 0 1 16 0v40h20a8 8 0 0 1 8 8"/></svg>

<svg xmlns="http://www.w3.org/2000/svg" viewBox="0 0 256 256" fill="currentColor"><path d="M208,88H152V32Z" opacity="0.2"/><path d="M216,120V88a8,8,0,0,0-2.34-5.66l-56-56A8,8,0,0,0,152,24H56A16,16,0,0,0,40,40v80a8,8,0,0,0,16,0V40h88V88a8,8,0,0,0,8,8h48v24a8,8,0,0,0,16,0ZM160,51.31,188.69,80H160ZM68,160v48a8,8,0,0,1-16,0V192H32v16a8,8,0,0,1-16,0V160a8,8,0,0,1,16,0v16H52V160a8,8,0,0,1,16,0Zm56,0a8,8,0,0,1-8,8h-8v40a8,8,0,0,1-16,0V168H84a8,8,0,0,1,0-16h32A8,8,0,0,1,124,160Zm72,0v48a8,8,0,0,1-16,0V184l-9.6,12.8a8,8,0,0,1-12.8,0L148,184v24a8,8,0,0,1-16,0V160a8,8,0,0,1,14.4-4.8L164,178.67l17.6-23.47A8,8,0,0,1,196,160Zm56,48a8,8,0,0,1-8,8H216a8,8,0,0,1-8-8V160a8,8,0,0,1,16,0v40h20A8,8,0,0,1,252,208Z"/></svg>
